X:1
T:[ID 4-49r]
T:[ID 4-49r]
T:Bezeichnung standardisiert: [mit Trio]; No 1. [mit Trio]
T:Urheber unbekannt Datum in der hier transkribierten schriftlichen Quelle: 1796
C:Urheber unbekannt
C:Datum in der hier transkribierten schriftlichen Quelle: 1796
L:1/8
M:2/4
K:D
V:1 treble 
V:1
 dDFA | dfaf | gedc | d/c/d/e/ dA | dDFA | dfaf | gedc | d2 z2 :: ee cc | gg ee | aa f2 | dDFA | %12
 dfaf | gedc | d2 z2 :|[K:G]"^Trio" !fermata!BGBd | BGBd | cAGF | G/A/B/c/ d/e/f/g/ | BGBd | BGBd | %21
 cAGF | G2 z2 :: [FA][FA] [GB][GB] | [FA][FA] [GB][GB] | [FA][FA] [GB][GB] | [FA]3 z2 | BGBd | %28
 BGBd | cAGF | G2 z2!D.C.! :| %31

